X: 323
T:Walking To Heel
% Nottingham Music Database
S:John Goodacre 1985, via Phil Rowe
M:6/8
K:D
"D"d2A -"A7"A2F-|"D"F2E D3|"D"DEF "A7"E2D|"D"DEF "A7"E2B/2c/2|"D"d2A -"A7"A2F-\
|"D"F2E D3|"Em"EFG "A7"F2E|"D"D3 D3::
"D"A3 "A7"G3|"D"FGF "A7"E3|"D"A2G FGA|"G"B2G -GFE|"D"A3 "A7"G3|"D"FGF "A7"E3|\
"Em"B2G -"A7"GEC|"D"D3 D3:|


